X: 10844
T: Dregs Of Birch, The
R: reel
M: 4/4
K: Gmajor
|:B2 AG (3Bcd ed|GBAG E2 GA|(3Bcd gf edGA|(3Bcd BA GE E2|
B2 AG (3Bcd ed|gfed g2 GA|B3G A2 ed|d<e G2 G4:|
|:e3f gfed|GBBA GE E2|edef g3a|gfed g3f|
edef gfed|GBAG dged|B3G A2 ed|d<e G2 G4:|

